X:1
T:Resignation, 11.11.11.11
T:Resignation, 11.11.11.11
T:Anonymous
T:Public Domain Courtesy of the Cyber Hymnal™
C:Anonymous
Z:Public Domain
Z:Courtesy of the Cyber Hymnal™
%%score ( 1 2 ) ( 3 4 )
L:1/8
M:2/2
K:Bb
V:1 treble 
V:2 treble 
V:3 bass 
V:4 bass 
V:1
 [DF]2 | [DF]4 [EG]2 [DF]2 | [DF]4 [B,D]2 [DF]2 | [EG]4 [GB]2 [EG]2 | [DF]6 [DF]2 | %5
 [FB]4 [Fc]2 [Fd]2 | [EG]4 [Gc]2 [GB]2 | [FA]4 [GB]2 [=EG]2 | F6 [DF]2 | [DF]4 [EG]2 [DF]2 | %10
 [DF]4 [B,D]2 [DF]2 | [EG]4 [GB]2 [EG]2 | [DF]6 [DB]2 | [Fd]4 [Fc]2 [FB]2 | [Ge]4 [Fd]2 [Gc]2 | %15
 [FB]4 [EA]2 [EA]2 | [DB]6 |] %17
V:2
 x2 | x8 | x8 | x8 | x8 | x8 | x8 | x8 | F6 x2 | x8 | x8 | x8 | x8 | x8 | x8 | x8 | x6 |] %17
V:3
 [B,,B,]2 | [B,,B,]4 [B,,B,]2 [B,,B,]2 | [B,,B,]4 [B,,B,]2 [B,,B,]2 | [E,B,]4 [E,B,]2 [E,B,]2 | %4
 [B,,B,]6 [B,,B,]2 | [D,B,]4 [C,A,]2 [B,,B,]2 | [E,B,]4 [E,G,]2 [=E,C]2 | [F,C]4 [C,C]2 [C,B,]2 | %8
 [F,A,]6 [B,,B,]2 | [B,,B,]4 [B,,B,]2 [B,,B,]2 | [B,,B,]4 [B,,F,]2 [B,,B,]2 | %11
 [E,B,]4 [E,B,]2 [E,B,]2 | [B,,B,]6 [B,,B,]2 | [B,,B,]4 [C,A,]2 [D,B,]2 | %14
 (G,2 C2) [D,B,]2 [E,B,]2 | [F,D]4 [F,C]2 [F,C]2 | [B,,B,]6 |] %17
V:4
 x2 | x8 | x8 | x8 | x8 | x8 | x8 | x8 | x8 | x8 | x8 | x8 | x8 | x8 | C,4 x4 | x8 | x6 |] %17

